public/images/bgwindow.svg

<svg width="65" height="59" viewBox="0 0 65 59" fill="none" xmlns="http://www.w3.org/2000/svg">
<g filter="url(#filter0_b_348_2159)">
<rect x="3" y="6.198" width="47.393" height="47.393" rx="8" transform="rotate(-3.86916 3 6.198)" fill="#B2E7FE" fill-opacity="0.08"/>
<rect x="3.2663" y="6.43056" width="46.893" height="46.893" rx="7.75" transform="rotate(-3.86916 3.2663 6.43056)" stroke="url(#paint0_linear_348_2159)" stroke-width="0.5"/>
<rect x="3.2663" y="6.43056" width="46.893" height="46.893" rx="7.75" transform="rotate(-3.86916 3.2663 6.43056)" stroke="url(#paint1_linear_348_2159)" stroke-width="0.5"/>
</g>
<g filter="url(#filter1_bdii_348_2159)">
<path fill-rule="evenodd" clip-rule="evenodd" d="M5.10738 14.702C5.06991 14.1479 5.05117 13.8709 5.05228 13.6359C5.06756 10.4077 7.44977 7.67991 10.6465 7.2301C10.8792 7.19736 11.1562 7.17863 11.7103 7.14115L41.7809 5.10741C42.335 5.06993 42.612 5.0512 42.8469 5.05231C46.0751 5.06758 48.803 7.4498 49.2528 10.6466C49.2855 10.8792 49.3042 11.1562 49.3417 11.7103C49.3446 11.7529 49.346 11.7742 49.346 11.7923C49.3448 12.0406 49.1615 12.2505 48.9156 12.2851C48.8977 12.2876 48.8764 12.289 48.8338 12.2919L5.68898 15.2099C5.64636 15.2128 5.62505 15.2142 5.60698 15.2141C5.35866 15.2129 5.14882 15.0297 5.11422 14.7838C5.1117 14.7659 5.11026 14.7446 5.10738 14.702ZM9.20991 13.0564C10.2629 12.9852 11.0588 12.0738 10.9876 11.0208C10.9164 9.96776 10.005 9.17186 8.95201 9.24308C7.89899 9.31429 7.10309 10.2257 7.1743 11.2787C7.24552 12.3317 8.15689 13.1276 9.20991 13.0564ZM14.5485 12.6953C15.6015 12.6241 16.3975 11.7127 16.3262 10.6597C16.255 9.6067 15.3436 8.81079 14.2906 8.88201C13.2376 8.95323 12.4417 9.8646 12.5129 10.9176C12.5841 11.9706 13.4955 12.7665 14.5485 12.6953ZM19.8872 12.3343C20.9402 12.263 21.7361 11.3517 21.6649 10.2986C21.5936 9.24564 20.6823 8.44973 19.6293 8.52095C18.5762 8.59217 17.7803 9.50354 17.8516 10.5566C17.9228 11.6096 18.8341 12.4055 19.8872 12.3343ZM21.3775 28.7057C21.1211 24.9148 23.9863 21.6339 27.7772 21.3775C31.5681 21.1211 34.849 23.9864 35.1054 27.7772C35.3618 31.5681 32.4965 34.849 28.7056 35.1054C24.9148 35.3618 21.6339 32.4965 21.3775 28.7057ZM19.9664 41.8257C19.9094 40.9832 20.5461 40.2541 21.3885 40.1972L36.6417 39.1656C37.4842 39.1086 38.2133 39.7453 38.2702 40.5877C38.3272 41.4301 37.6905 42.1592 36.8481 42.2162L21.5948 43.2478C20.7524 43.3048 20.0233 42.6681 19.9664 41.8257Z" fill="url(#paint2_linear_348_2159)"/>
</g>
<defs>
<filter id="filter0_b_348_2159" x="-20.3843" y="-20.384" width="97.2515" height="97.2512" filterUnits="userSpaceOnUse" color-interpolation-filters="sRGB">
<feFlood flood-opacity="0" result="BackgroundImageFix"/>
<feGaussianBlur in="BackgroundImageFix" stdDeviation="12"/>
<feComposite in2="SourceAlpha" operator="in" result="effect1_backgroundBlur_348_2159"/>
<feBlend mode="normal" in="SourceGraphic" in2="effect1_backgroundBlur_348_2159" result="shape"/>
</filter>
<filter id="filter1_bdii_348_2159" x="-18.9478" y="-18.9478" width="92.2939" height="86.1992" filterUnits="userSpaceOnUse" color-interpolation-filters="sRGB">
<feFlood flood-opacity="0" result="BackgroundImageFix"/>
<feGaussianBlur in="BackgroundImageFix" stdDeviation="12"/>
<feComposite in2="SourceAlpha" operator="in" result="effect1_backgroundBlur_348_2159"/>
<feColorMatrix in="SourceAlpha" type="matrix" values="0 0 0 0 0 0 0 0 0 0 0 0 0 0 0 0 0 0 127 0" result="hardAlpha"/>
<feOffset dx="5" dy="5"/>
<feGaussianBlur stdDeviation="5"/>
<feColorMatrix type="matrix" values="0 0 0 0 0.258824 0 0 0 0 0.631373 0 0 0 0 0.996078 0 0 0 0.12 0"/>
<feBlend mode="normal" in2="effect1_backgroundBlur_348_2159" result="effect2_dropShadow_348_2159"/>
<feBlend mode="normal" in="SourceGraphic" in2="effect2_dropShadow_348_2159" result="shape"/>
<feColorMatrix in="SourceAlpha" type="matrix" values="0 0 0 0 0 0 0 0 0 0 0 0 0 0 0 0 0 0 127 0" result="hardAlpha"/>
<feOffset dy="0.2"/>
<feComposite in2="hardAlpha" operator="arithmetic" k2="-1" k3="1"/>
<feColorMatrix type="matrix" values="0 0 0 0 1 0 0 0 0 1 0 0 0 0 1 0 0 0 0.25 0"/>
<feBlend mode="normal" in2="shape" result="effect3_innerShadow_348_2159"/>
<feColorMatrix in="SourceAlpha" type="matrix" values="0 0 0 0 0 0 0 0 0 0 0 0 0 0 0 0 0 0 127 0" result="hardAlpha"/>
<feOffset dy="-0.2"/>
<feComposite in2="hardAlpha" operator="arithmetic" k2="-1" k3="1"/>
<feColorMatrix type="matrix" values="0 0 0 0 0.612986 0 0 0 0 0.697287 0 0 0 0 0.758333 0 0 0 0.25 0"/>
<feBlend mode="normal" in2="effect3_innerShadow_348_2159" result="effect4_innerShadow_348_2159"/>
</filter>
<linearGradient id="paint0_linear_348_2159" x1="11.3635" y1="49.0608" x2="46.8529" y2="11.3731" gradientUnits="userSpaceOnUse">
<stop stop-color="#3AC1FD" stop-opacity="0.16"/>
<stop offset="1" stop-color="white" stop-opacity="0"/>
</linearGradient>
<linearGradient id="paint1_linear_348_2159" x1="11.3635" y1="49.0608" x2="46.8529" y2="11.3731" gradientUnits="userSpaceOnUse">
<stop stop-color="white" stop-opacity="0"/>
<stop offset="1" stop-color="white" stop-opacity="0.16"/>
</linearGradient>
<linearGradient id="paint2_linear_348_2159" x1="32.1272" y1="-6.69939" x2="23.1604" y2="96.5117" gradientUnits="userSpaceOnUse">
<stop stop-color="white" stop-opacity="0.88"/>
<stop offset="1" stop-color="white" stop-opacity="0"/>
</linearGradient>
</defs>
</svg>

<svg width="65" height="59" fill="none" xmlns="http://www.w3.org/2000/svg"><g filter="url(#a)"><rect x="3" y="6.198" width="47.393" height="47.393" rx="8" transform="rotate(-3.87 3 6.198)" fill="#B2E7FE" fill-opacity=".08"/><rect x="3.266" y="6.431" width="46.893" height="46.893" rx="7.75" transform="rotate(-3.87 3.266 6.43)" stroke="url(#b)" stroke-width=".5"/><rect x="3.266" y="6.431" width="46.893" height="46.893" rx="7.75" transform="rotate(-3.87 3.266 6.43)" stroke="url(#c)" stroke-width=".5"/></g><g filter="url(#d)"><path fill-rule="evenodd" clip-rule="evenodd" d="M5.107 14.702c-.037-.554-.056-.831-.055-1.066a6.5 6.5 0 0 1 5.595-6.406c.232-.033.51-.051 1.063-.089l30.07-2.034a16.35 16.35 0 0 1 1.067-.055 6.5 6.5 0 0 1 6.406 5.595c.032.232.051.51.089 1.063l.004.082a.5.5 0 0 1-.43.493c-.018.003-.04.004-.082.007L5.689 15.21a.5.5 0 0 1-.575-.426l-.007-.082Zm4.103-1.646a1.911 1.911 0 1 0-.258-3.813 1.911 1.911 0 0 0 .258 3.813Zm5.338-.36a1.911 1.911 0 1 0-.257-3.814 1.911 1.911 0 0 0 .258 3.813Zm5.34-.362a1.911 1.911 0 1 0-.259-3.813 1.911 1.911 0 0 0 .258 3.813Zm1.49 16.372a6.88 6.88 0 1 1 13.727-.929 6.88 6.88 0 0 1-13.727.929Zm-1.412 13.12a1.529 1.529 0 0 1 1.422-1.629l15.254-1.031a1.529 1.529 0 1 1 .206 3.05l-15.253 1.032a1.529 1.529 0 0 1-1.629-1.422Z" fill="url(#e)"/></g><defs><linearGradient id="b" x1="11.364" y1="49.061" x2="46.853" y2="11.373" gradientUnits="userSpaceOnUse"><stop stop-color="#3AC1FD" stop-opacity=".16"/><stop offset="1" stop-color="#fff" stop-opacity="0"/></linearGradient><linearGradient id="c" x1="11.364" y1="49.061" x2="46.853" y2="11.373" gradientUnits="userSpaceOnUse"><stop stop-color="#fff" stop-opacity="0"/><stop offset="1" stop-color="#fff" stop-opacity=".16"/></linearGradient><linearGradient id="e" x1="32.127" y1="-6.699" x2="23.16" y2="96.512" gradientUnits="userSpaceOnUse"><stop stop-color="#fff" stop-opacity=".88"/><stop offset="1" stop-color="#fff" stop-opacity="0"/></linearGradient><filter id="a" x="-20.384" y="-20.384" width="97.251" height="97.251" filterUnits="userSpaceOnUse" color-interpolation-filters="sRGB"><feFlood flood-opacity="0" result="BackgroundImageFix"/><feGaussianBlur in="BackgroundImageFix" stdDeviation="12"/><feComposite in2="SourceAlpha" operator="in" result="effect1_backgroundBlur_348_2159"/><feBlend in="SourceGraphic" in2="effect1_backgroundBlur_348_2159" result="shape"/></filter><filter id="d" x="-18.948" y="-18.948" width="92.294" height="86.199" filterUnits="userSpaceOnUse" color-interpolation-filters="sRGB"><feFlood flood-opacity="0" result="BackgroundImageFix"/><feGaussianBlur in="BackgroundImageFix" stdDeviation="12"/><feComposite in2="SourceAlpha" operator="in" result="effect1_backgroundBlur_348_2159"/><feColorMatrix in="SourceAlpha" values="0 0 0 0 0 0 0 0 0 0 0 0 0 0 0 0 0 0 127 0" result="hardAlpha"/><feOffset dx="5" dy="5"/><feGaussianBlur stdDeviation="5"/><feColorMatrix values="0 0 0 0 0.258824 0 0 0 0 0.631373 0 0 0 0 0.996078 0 0 0 0.12 0"/><feBlend in2="effect1_backgroundBlur_348_2159" result="effect2_dropShadow_348_2159"/><feBlend in="SourceGraphic" in2="effect2_dropShadow_348_2159" result="shape"/><feColorMatrix in="SourceAlpha" values="0 0 0 0 0 0 0 0 0 0 0 0 0 0 0 0 0 0 127 0" result="hardAlpha"/><feOffset dy=".2"/><feComposite in2="hardAlpha" operator="arithmetic" k2="-1" k3="1"/><feColorMatrix values="0 0 0 0 1 0 0 0 0 1 0 0 0 0 1 0 0 0 0.25 0"/><feBlend in2="shape" result="effect3_innerShadow_348_2159"/><feColorMatrix in="SourceAlpha" values="0 0 0 0 0 0 0 0 0 0 0 0 0 0 0 0 0 0 127 0" result="hardAlpha"/><feOffset dy="-.2"/><feComposite in2="hardAlpha" operator="arithmetic" k2="-1" k3="1"/><feColorMatrix values="0 0 0 0 0.612986 0 0 0 0 0.697287 0 0 0 0 0.758333 0 0 0 0.25 0"/><feBlend in2="effect3_innerShadow_348_2159" result="effect4_innerShadow_348_2159"/></filter></defs></svg>
